twotone/svg/timelapse.svg

<svg xmlns="http://www.w3.org/2000/svg" width="24" height="24"><path fill="none" d="M0 0h24v24H0V0z"/><g fill="currentColor"><path opacity=".3" d="M12 3.99c-4.42 0-8 3.58-8 8s3.58 8 8 8 8-3.58 8-8-3.58-8-8-8zm4.25 12.24c-2.35 2.34-6.15 2.34-8.49 0L12 11.99v-6c1.54 0 3.07.59 4.24 1.76a5.99 5.99 0 0 1 .01 8.48z"/><path d="M16.24 7.75A5.974 5.974 0 0 0 12 5.99v6l-4.24 4.24c2.34 2.34 6.14 2.34 8.49 0a5.99 5.99 0 0 0-.01-8.48z"/><path d="M12 1.99c-5.52 0-10 4.48-10 10s4.48 10 10 10 10-4.48 10-10-4.48-10-10-10zm0 18c-4.42 0-8-3.58-8-8s3.58-8 8-8 8 3.58 8 8-3.58 8-8 8z"/></g></svg>

<?xml version="1.0" encoding="utf-8"?>
<!-- Generator: Adobe Illustrator 19.1.0, SVG Export Plug-In . SVG Version: 6.00 Build 0)  -->
<svg version="1.1" xmlns="http://www.w3.org/2000/svg" xmlns:xlink="http://www.w3.org/1999/xlink" x="0px" y="0px" width="24px"
	 height="24px" viewBox="0 0 24 24" enable-background="new 0 0 24 24" xml:space="preserve">
<g id="Bounding_Boxes">
	<g id="ui_x5F_spec_x5F_header_copy_2">
	</g>
	<path fill="none" d="M0,0h24v24H0V0z"/>
</g>
<g id="Duotone" fill="currentColor">
	<g id="ui_x5F_spec_x5F_header_copy_3">
	</g>
	<g>
		<path opacity="0.3" d="M12,3.99c-4.42,0-8,3.58-8,8s3.58,8,8,8s8-3.58,8-8S16.42,3.99,12,3.99z M16.25,16.23
			c-2.35,2.34-6.15,2.34-8.49,0L12,11.99v-6c1.54,0,3.07,0.59,4.24,1.76C18.59,10.09,18.59,13.89,16.25,16.23z"/>
		<path d="M16.24,7.75c-1.17-1.17-2.7-1.76-4.24-1.76v6l-4.24,4.24c2.34,2.34,6.14,2.34,8.49,0C18.59,13.89,18.59,10.09,16.24,7.75z
			"/>
		<path d="M12,1.99c-5.52,0-10,4.48-10,10s4.48,10,10,10s10-4.48,10-10S17.52,1.99,12,1.99z M12,19.99c-4.42,0-8-3.58-8-8
			s3.58-8,8-8s8,3.58,8,8S16.42,19.99,12,19.99z"/>
	</g>
</g>
</svg>
